X:1
T:It Is Glory Just to Walk with Him
T:It Is Glory Just to Walk with Him
T:Haldor Lillenas
T:Avis M. Christiansen, 1918
T:Public Domain Courtesy of the Cyber Hymnal™
T:Public Domain Courtesy of the Cyber Hymnal™
C:Haldor Lillenas
Z:Public Domain
Z:Courtesy of the Cyber Hymnal™
%%score ( 1 2 ) ( 3 4 )
L:1/8
Q:1/4=105
M:4/4
K:C
V:1 treble 
V:2 treble 
V:3 bass 
V:4 bass 
V:1
 [CE]>[DF] | [EG]>[EG] [EG]>[EG] [FA]>[EG] [CE]>[EG] | [Ec]>[Ec] [Fc]>[Fc] [Ec]2 [GB]>[FA] | %3
w: 1.~It is|glo- ry just to walk with Him whose|blood has ran- somed me; It is|
w: 2.~It is|glo- ry when the sha- dows fall to|know that He is near. O what|
w: 3.~’Twill be|glo- ry when I walk with Him on|Heav- en’s gold- en shore, Ne- ver|
 [EG]>[EG] [EG]>[EG] [Ec]2 [CE]2 | [B,D]6 [CE]>[DF] | [EG]>[EG] [EG]>[EG] [FA]>[EG] [CE]>[EG] | %6
w: rap- ture for my soul each|day. It is|joy di- vine to feel Him near wher-|
w: joy to simp- ly trust and|pray! It is|glo- ry to a- bide in Him when|
w: from His side a- gain to|stray. ’Twill be|glo- ry, won- drous glo- ry with the|
 [Ec]>[Ec] [Fc]>[Fc] [Fc]2 [Fc]>[Fd] | [Ge]>[Gc] [GB]>[FA] [EG]2 [Fd]2 | [Ec]6 || %9
w: e’er my path may be. Bless the|Lord, it’s glo- ry all the|way!|
w: skies a- bove are clear. Yes, with|Him, it’s glo- ry all the|way!|
w: Sav- ior ev- er- more, Ev- er-|last- ing glo- ry all the|way!|
"^Refrain" [CE]>[DF] | [EG]>[^D^F] [EG]>[DF] [EG]2 [Ec]2 | B6 [B,D]>[CE] | %12
w: |||
w: It is|glo- ry just to walk with|Him, It is|
w: |||
 [B,F]>[B,E] [DF]>[EG] [GB]2 [FA]2 | G6 [CE]>[DF] | [EG]>[EG] [EG]>[EG] [Ec]2 [EG]>[EG] | %15
w: |||
w: glo- ry just to walk with|Him, He will|guide my steps a- right Through the|
w: |||
 [FA]>[FA] [GA]>[GA] !fermata![^Fd]2 [Fc]>[Fc] | [GB]>[GB] [=FB]>[FA] [FG]2 [Fd]2 | c4- [Ec]2 |] %18
w: |||
w: vale and o’er the height, It is|glo- ry just to walk with|Him. *|
w: |||
V:2
 x2 | x8 | x8 | x8 | x8 | x8 | x8 | x8 | x6 || x2 | x8 | (E2 F>F F2) x2 | x8 | (E2 F>F E2) x2 | %14
 x8 | x8 | x8 | E2 F>F x2 |] %18
V:3
 [C,G,]>[C,G,] | [C,C]>[C,C] [C,C]>[C,C] [C,C]>[C,C] [C,G,]>[C,G,] | %2
 [C,G,]>[C,G,] [C,A,]>[C,A,] [C,G,]2 [C,C]>[C,C] | [C,C]>[C,C] [C,C]>[C,C] [C,G,]2 [C,G,]2 | %4
 G,6 [C,G,]>[C,G,] | [C,C]>[C,C] [C,C]>[C,C] [C,C]>[C,C] [C,G,]>[C,G,] | %6
 [C,G,]>[C,G,] [C,A,]>[C,A,] [C,G,]2 [C,A,]>[C,_A,] | [C,G,]>[E,C] [F,C]>[F,C] [G,C]2 [G,,B,]2 | %8
 [C,G,]6 || [C,G,]>[C,G,] | [C,C]>[C,C] [C,C]>[C,C] [C,C]2 [C,G,]2 | %11
 ([D,G,]2 [D,G,]>[D,G,] [A,,G,]2) [F,G,]>[E,G,] | [D,G,]>[D,G,] [G,,G,]>[G,,G,] [G,,G,]2 [B,,G,]2 | %13
 ([C,G,]2 [D,B,]>[D,B,] [C,C]2) [C,G,]>[C,G,] | [C,C]>[C,C] [C,C]>[C,C] [C,G,]2 [C,C]>[C,C] | %15
 [F,C]>[F,C] [E,^C]>[E,C] [D,D]2 [D,D]>[D,D] | [G,D]>[G,D] [G,D]>[G,D] [G,B,]2 [G,,B,]2 | %17
 C2 A,>A, [C,G,]2 |] %18
V:4
 x2 | x8 | x8 | x8 | G,6 x2 | x8 | x8 | x8 | x6 || x2 | x8 | x8 | x8 | x8 | x8 | x8 | x8 | %17
 C,4- x2 |] %18

